X: 1122
T: Duke of Gordon's birth day.   a Strathspey.
C: by Mr Marshall
%R: strathspey
B: Niel Gow & Sons "Complete Repository" v.1 p.12 #2
Z: 2021 John Chambers <jc:trillian.mit.edu>
M: C
L: 1/8
K: G
%%slurgraces 1
%%graceslurs 1
% - - - - - - - - - -
% Voice 1 formatted for proofreading.
V: 1 staves=2
B | TG>DGB TG>DGB | d>Bg>B A/A/A A>B | TG>DGB .G.D.G.B | D>CTB,>A, G,/G,/G, G, :: d | [gB]>a {ga}b>g d/d/d Td2 |
[gB]>a {ga}b>g e/e/e e>a |1 g<be<g dgBg TA>GA<B G/G/G G :|2 g<be<g d<bB<g | TA>GAB G/G/G G |]
% - - - - - - - - - -
% Voice 2 preserves the book's staff layout.
V: 2 clef=bass middle=d
z | g2g2 g2g2 | g2g2 a2a2 | g2g2 g2G2 | d2D2 G2G :: z | g2g2 g2g2 |
g2g2 c'2c2 |1 B2c2 B2G2 | d2D2 G2G :|2 b2c'2 b2g2 | d2D2 G2G |]


